svgs/charts/bar-chart-10.svg

<svg width="24" height="24" viewBox="0 0 24 24" fill="none" xmlns="http://www.w3.org/2000/svg">
<path d="M9 7H4.6C4.03995 7 3.75992 7 3.54601 7.10899C3.35785 7.20487 3.20487 7.35785 3.10899 7.54601C3 7.75992 3 8.03995 3 8.6V19.4C3 19.9601 3 20.2401 3.10899 20.454C3.20487 20.6422 3.35785 20.7951 3.54601 20.891C3.75992 21 4.03995 21 4.6 21H9M9 21H15M9 21L9 4.6C9 4.03995 9 3.75992 9.10899 3.54601C9.20487 3.35785 9.35785 3.20487 9.54601 3.10899C9.75992 3 10.0399 3 10.6 3L13.4 3C13.9601 3 14.2401 3 14.454 3.10899C14.6422 3.20487 14.7951 3.35785 14.891 3.54601C15 3.75992 15 4.03995 15 4.6V21M15 11H19.4C19.9601 11 20.2401 11 20.454 11.109C20.6422 11.2049 20.7951 11.3578 20.891 11.546C21 11.7599 21 12.0399 21 12.6V19.4C21 19.9601 21 20.2401 20.891 20.454C20.7951 20.6422 20.6422 20.7951 20.454 20.891C20.2401 21 19.9601 21 19.4 21H15" stroke="#1C1D20" stroke-width="1.5" stroke-linecap="round" stroke-linejoin="round"/>
</svg>

<svg fill="none" xmlns="http://www.w3.org/2000/svg" viewBox="0 0 24 24"><path d="M9 7H4.6c-.56 0-.84 0-1.054.109a1 1 0 0 0-.437.437C3 7.76 3 8.04 3 8.6v10.8c0 .56 0 .84.109 1.054a1 1 0 0 0 .437.437C3.76 21 4.04 21 4.6 21H9m0 0h6m-6 0V4.6c0-.56 0-.84.109-1.054a1 1 0 0 1 .437-.437C9.76 3 10.04 3 10.6 3h2.8c.56 0 .84 0 1.054.109a1 1 0 0 1 .437.437C15 3.76 15 4.04 15 4.6V21m0-10h4.4c.56 0 .84 0 1.054.109a1 1 0 0 1 .437.437C21 11.76 21 12.04 21 12.6v6.8c0 .56 0 .84-.109 1.054a1 1 0 0 1-.437.437C20.24 21 19.96 21 19.4 21H15" stroke="#1C1D20" stroke-width="1.5" stroke-linecap="round" stroke-linejoin="round"/></svg>
